lib/flags/ge-georgia.svg

<svg xmlns="http://www.w3.org/2000/svg" fill="none" aria-hidden="true" viewBox="0 0 42 30"><g id="Country=GE - Georgia, Size=sm (36x24)" filter="url(#filter0_dd_91_28142)"><g clip-path="url(#clip0_91_28142)"><g id="flag"><mask id="mask0_91_28142" width="36" height="24" x="3" y="2" maskUnits="userSpaceOnUse" style="mask-type:alpha"><rect id="mask" width="36" height="24" x="3" y="2" fill="white"/></mask><g mask="url(#mask0_91_28142)"><g id="contents"><path id="background" fill="#F7FCFF" fill-rule="evenodd" d="M3 2V26H39V2H3Z" clip-rule="evenodd"/><mask id="mask1_91_28142" width="36" height="24" x="3" y="2" maskUnits="userSpaceOnUse" style="mask-type:alpha"><path id="background_2" fill="white" fill-rule="evenodd" d="M3 2V26H39V2H3Z" clip-rule="evenodd"/></mask><g mask="url(#mask1_91_28142)"><g id="mark 1"><path id="cross" fill="#E31D1C" fill-rule="evenodd" d="M18.75 2H23.25V12H39V16H23.25V26H18.75V16H3V12H18.75V2Z" clip-rule="evenodd"/></g><g id="mark 2"><path id="Combined Shape" fill="#E31D1C" fill-rule="evenodd" d="M14.2486 19.222L16.7251 19V21C16.7251 21 14.2486 20.8622 14.2486 20.902C14.2486 20.9418 14.4751 23 14.4751 23H12.2251L12.4053 21H9.9751V19L12.4053 19.222L12.2251 17H14.4751L14.2486 19.222Z" clip-rule="evenodd"/><path id="Combined Shape_2" fill="#E31D1C" fill-rule="evenodd" d="M14.2486 7.22195L16.7251 7V9C16.7251 9 14.2486 8.86216 14.2486 8.90196C14.2486 8.94175 14.4751 11 14.4751 11H12.2251L12.4053 9H9.9751V7L12.4053 7.22195L12.2251 5H14.4751L14.2486 7.22195Z" clip-rule="evenodd"/><path id="Combined Shape_3" fill="#E31D1C" fill-rule="evenodd" d="M29.9986 7.22195L32.4751 7V9C32.4751 9 29.9986 8.86216 29.9986 8.90196C29.9986 8.94175 30.2251 11 30.2251 11H27.9751L28.1553 9H25.7251V7L28.1553 7.22195L27.9751 5H30.2251L29.9986 7.22195Z" clip-rule="evenodd"/><path id="Combined Shape_4" fill="#E31D1C" fill-rule="evenodd" d="M29.9986 19.222L32.4751 19V21C32.4751 21 29.9986 20.8622 29.9986 20.902C29.9986 20.9418 30.2251 23 30.2251 23H27.9751L28.1553 21H25.7251V19L28.1553 19.222L27.9751 17H30.2251L29.9986 19.222Z" clip-rule="evenodd"/></g></g></g></g></g></g></g><defs><filter id="filter0_dd_91_28142" width="42" height="30" x="0" y="0" color-interpolation-filters="sRGB" filterUnits="userSpaceOnUse"><feFlood flood-opacity="0" result="BackgroundImageFix"/><feColorMatrix in="SourceAlpha" result="hardAlpha" values="0 0 0 0 0 0 0 0 0 0 0 0 0 0 0 0 0 0 127 0"/><feOffset dy="1"/><feGaussianBlur stdDeviation="1"/><feColorMatrix values="0 0 0 0 0.0627451 0 0 0 0 0.0941176 0 0 0 0 0.156863 0 0 0 0.06 0"/><feBlend in2="BackgroundImageFix" result="effect1_dropShadow_91_28142"/><feColorMatrix in="SourceAlpha" result="hardAlpha" values="0 0 0 0 0 0 0 0 0 0 0 0 0 0 0 0 0 0 127 0"/><feOffset dy="1"/><feGaussianBlur stdDeviation="1.5"/><feColorMatrix values="0 0 0 0 0.0627451 0 0 0 0 0.0941176 0 0 0 0 0.156863 0 0 0 0.1 0"/><feBlend in2="effect1_dropShadow_91_28142" result="effect2_dropShadow_91_28142"/><feBlend in="SourceGraphic" in2="effect2_dropShadow_91_28142" result="shape"/></filter><clipPath id="clip0_91_28142"><rect width="36" height="24" x="3" y="2" fill="white" rx="2"/></clipPath></defs></svg>

<svg xmlns="http://www.w3.org/2000/svg" fill="none" aria-hidden="true" viewBox="0 0 42 30"><g filter="url(#a)"><g clip-path="url(#b)"><mask id="c" width="36" height="24" x="3" y="2" maskUnits="userSpaceOnUse" style="mask-type:alpha"><path fill="#fff" d="M3 2h36v24H3z"/></mask><g mask="url(#c)"><path fill="#F7FCFF" fill-rule="evenodd" d="M3 2v24h36V2H3Z" clip-rule="evenodd"/><mask id="d" width="36" height="24" x="3" y="2" maskUnits="userSpaceOnUse" style="mask-type:alpha"><path fill="#fff" fill-rule="evenodd" d="M3 2v24h36V2H3Z" clip-rule="evenodd"/></mask><g fill="#E31D1C" fill-rule="evenodd" clip-rule="evenodd" mask="url(#d)"><path d="M18.75 2h4.5v10H39v4H23.25v10h-4.5V16H3v-4h15.75V2Z"/><path d="M14.249 19.222 16.725 19v2s-2.476-.138-2.476-.098c0 .04.226 2.098.226 2.098h-2.25l.18-2h-2.43v-2l2.43.222-.18-2.222h2.25l-.226 2.222Zm0-12L16.725 7v2s-2.476-.138-2.476-.098c0 .04.226 2.098.226 2.098h-2.25l.18-2h-2.43V7l2.43.222L12.225 5h2.25l-.226 2.222Zm15.75 0L32.475 7v2S30 8.862 30 8.902c0 .04.226 2.098.226 2.098h-2.25l.18-2h-2.43V7l2.43.222L27.975 5h2.25L30 7.222Zm0 12L32.475 19v2S30 20.862 30 20.902c0 .04.226 2.098.226 2.098h-2.25l.18-2h-2.43v-2l2.43.222-.18-2.222h2.25L30 19.222Z"/></g></g></g></g><defs><clipPath id="b"><rect width="36" height="24" x="3" y="2" fill="#fff" rx="2"/></clipPath><filter id="a" width="42" height="30" x="0" y="0" color-interpolation-filters="sRGB" filterUnits="userSpaceOnUse"><feFlood flood-opacity="0" result="BackgroundImageFix"/><feColorMatrix in="SourceAlpha" result="hardAlpha" values="0 0 0 0 0 0 0 0 0 0 0 0 0 0 0 0 0 0 127 0"/><feOffset dy="1"/><feGaussianBlur stdDeviation="1"/><feColorMatrix values="0 0 0 0 0.0627451 0 0 0 0 0.0941176 0 0 0 0 0.156863 0 0 0 0.06 0"/><feBlend in2="BackgroundImageFix" result="effect1_dropShadow_91_28142"/><feColorMatrix in="SourceAlpha" result="hardAlpha" values="0 0 0 0 0 0 0 0 0 0 0 0 0 0 0 0 0 0 127 0"/><feOffset dy="1"/><feGaussianBlur stdDeviation="1.5"/><feColorMatrix values="0 0 0 0 0.0627451 0 0 0 0 0.0941176 0 0 0 0 0.156863 0 0 0 0.1 0"/><feBlend in2="effect1_dropShadow_91_28142" result="effect2_dropShadow_91_28142"/><feBlend in="SourceGraphic" in2="effect2_dropShadow_91_28142" result="shape"/></filter></defs></svg>
